X:2
T:2. Saulocker
M:3/4
K:Bb
L:1/8
F2 |: \
M:4/4
L:1/4
BFFF | FFFF | \
M:3/4
L:1/8
F2 (ED)EF | G2 F=E F2 | \
M:4/4
L:1/4
BFFF | FFFF |
M:3/4
L:1/8
F2 (FG)FE |1 D2 z2 F2 :|2 D2 z2 B,D |: \
M:4/4
L:1/4
(DC) C2 | (ED) D2 | \
M:3/4
L:1/8
F2 (ED)EF | (G2 F2) F2 |
M:4/4
L:1/4
BFFF | FFFF |1 \
M:3/4
L:1/8
F2 (FG)FE | D2 z B,D :|2 \
M:3/4
L:1/8
(GF)=EFGA | B2 z2 B2 ||
K:Eb
M:4/4
L:1/4
|: eBBB | BBBB | \
M:3/4
L:1/8
B2 (AG)AB | c2 B=A B2 | \
M:4/4
L:1/4
eBBB | BBBB |
M:3/4
L:1/8
B2 (Bc)BA |1 G2 z2 B2 :|2 G2 z2 EG |: \
M:4/4
L:1/4
(GF) F2 | (AG) G2 | \
M:3/4
L:1/8
B2 (AG) AB | (c2 B2) B2 |
M:4/4
L:1/4
eBBB | BBBB |1 \
M:3/4
L:1/8
B2 (Ac)BA | G2 z2 EG :|2 \
M:3/4
L:1/8
(cB)=ABcd | e2 z2 |]

